!!!COM: Bach, Johann Sebastian
!!!OTL: 153. Alle Menschen muessen sterben
!!!ONM: No. 153
!!!OCL: Erk
!!!SCA: BWV 262
!!!YOE: Riemenschneider, Albert
!!!OPR: 371 Harmonized Chorales and 69 Chorale Melodies with Figured Bass
!!!OPT: Bach Chorale Harmonizations
**harm	**root	**kern	**kern	**kern	**kern
!	!	!bass	!tenor	!alto	!sprno
*Iorgan	*Iorgan	*Iorgan	*Iorgan	*Iorgan	*Iorgan
*>[A,A,B]	*>[A,A,B]	*>[A,A,B]	*>[A,A,B]	*>[A,A,B]	*>[A,A,B]
*>norep[A,B]	*>norep[A,B]	*>norep[A,B]	*>norep[A,B]	*>norep[A,B]	*>norep[A,B]
*>A	*>A	*>A	*>A	*>A	*>A
*k[f#c#g#d#a#e#]	*k[f#c#g#d#a#e#]	*k[f#c#g#d#a#e#]	*k[f#c#g#d#a#e#]	*k[f#c#g#d#a#e#]	*k[f#c#g#d#a#e#]
*F#:	*F#:	*F#:	*F#:	*F#:	*F#:
*met(c)	*met(c)	*met(c)	*met(c)	*met(c)	*met(c)
*M4/4	*M4/4	*M4/4	*M4/4	*M4/4	*M4/4
*MM60	*MM60	*MM60	*MM60	*MM60	*MM60
=1-	=1-	=1-	=1-	=1-	=1-
I	4DD	4F#	4A#	4f#	4cc#
vi	4BB	4D#	8A#	4f#	4ff#
.	.	.	8B	.	.
Ib	4DD	4AA#	4c#	4f#	4cc#
IV	4GG	4BB	8B	4f#	4dd#
.	.	.	8A#	.	.
=2	=2	=2	=2	=2	=2
V	4AA	4C#	8G#	4f#	4.cc#
.	.	.	8F#	.	.
V	4AA	4C#	4G#	4e#	.
.	.	.	.	.	8b
I	4DD	4FF#	4F#	4f#	4a#
I;	4DD;	4FF#;	4F#;	4f#;	4a#;
=3	=3	=3	=3	=3	=3
I	4DD	4F#	4A#	4f#	4cc#
I	4DD	4F#	4A#	8f#	4cc#
.	.	.	.	8e#	.
ii	4EE	4G#	4B	8d#	4b
.	.	.	.	8e#	.
Ib	4DD	4A#	4c#	[4f#	4a#
=4	=4	=4	=4	=4	=4
ii7b	4EE	8B	4d#	4f#]	4.g#
.	.	8G#	.	.	.
V	4AA	8c#	8.c#	4e#	.
.	.	8C#	.	.	8f#
.	.	.	16B	.	.
I;	2DD;	2F#;	2A#;	2f#;	2f#;
=5:|!	=5:|!	=5:|!	=5:|!	=5:|!	=5:|!
*>B	*>B	*>B	*>B	*>B	*>B
V	4AA	4C#	4c#	4e#	4g#
V	4AA	4C#	4c#	4e#	4g#
I	4DD	4F#	4c#	4f#	8a#
.	.	.	.	.	8b#
iii	4FF#	8A#	4c#	4e#	4cc#
.	.	8G#	.	.	.
=6	=6	=6	=6	=6	=6
!!linebreak: 2
vi7b	4BB	4F#	4d#	4a#	4.cc#
V/V	4EE	4G#	4d#	8g#	.
.	.	.	.	8f#	8b#
V	4AA	2C#;	4c#	4e#	4cc#
V;	4AA;	.	4c#;	4e#;	4cc#;
=7	=7	=7	=7	=7	=7
ii	2EE	2G#	4.B	8g#	4.dd#
.	.	.	.	8a#	.
.	.	.	.	4b	.
.	.	.	8c#	.	8ee#
vi	4BB	8D#	[2d#	4a#	4ff#
.	.	8E#	.	.	.
vib	4BB	8F#	.	4a#	4ff#
.	.	8G#	.	.	.
=8	=8	=8	=8	=8	=8
V/vi	2FF#	2A#	4d#]	4.a#	4.ee#
.	.	.	4c##	.	.
.	.	.	.	8g#	8ee#
vi	4BB	2D#;	2d#;	4f#	4dd#
vi;	4BB;	.	.	4f#;	4dd#;
=9	=9	=9	=9	=9	=9
I	4DD	4F#	4c#	4f#	4a#
I	4DD	4F#	4c#	4f#	4a#
IV	4GG	4BB	8B	4f#	4dd#
.	.	.	8A#	.	.
V	4AA	4C#	4G#	4e#	4cc#
=10	=10	=10	=10	=10	=10
vi7	4BB	2D#	8F#	4f#	4cc#
.	.	.	8A#	.	.
V7c/V	4EE	.	8G#	4f#	4b#
.	.	.	8F#	.	.
V;	2AA;	2C#;	2G#;	2e#;	2cc#;
=11	=11	=11	=11	=11	=11
IV	4GG	4BB	4B	4f#	4dd#
I	4DD	4F#	4A#	8f#	4cc#
.	.	.	.	8e#	.
ii	4EE	4G#	4B	8d#	4b
.	.	.	.	8e#	.
Ib	4DD	4A#	4c#	4f#	4a#
=12	=12	=12	=12	=12	=12
ii7b	4EE	8B	4d#	4f#	4.g#
.	.	8G#	.	.	.
V	4AA	8c#	8.c#	4e#	.
.	.	8C#	.	.	8f#
.	.	.	16B	.	.
I;	2DD;	2F#;	2A#;	2f#;	2f#;
==	==	==	==	==	==
*-	*-	*-	*-	*-	*-
!!!CDT: 1685/3//-1750/7/28
!!!OCY: Deutschland
!!!AGN: chorale
!!!AST: Baroque
!!!AIN: vox
!!!YOY: 1941
!!!PPP: New York; London
!!!PPR: G. Schirmer
!!!ENC: David Huron
!!!EED: David Huron
!!!YEN: United States of America
!!!YER: 1992
!!!YEC: Copyright 1992 David Huron
!!!YEM: Rights to all derivative electronic formats reserved.
!!!YER: March 20, 1996
!!!AMT: simple quadruple
!!!EEV: 1.1
!!chor2scor: -l 2 -s 0.6 -o %b.pmx
